!!!OTL: Jungfer Doertchen.
!!!OTL-incipit: Es war ein Jaeger wohlgemut,
!!!ARE: Europa, Mitteleuropa, Deutschland (BRD), Hessen, Odenwald
!!!YOR: 3, S. 88
!!    1904 gedruckt in Darmstadt
!!!SCT: Q0057C
!!!TXL: @@DE
!!!YEM: Copyright 1995, estate of Helmut Schaffrath.
**kern	**text
*ICvox	*
*M3/4	*
*k[f#]	*
*G:	*
!LO:TX:a:t=Langsam.	!
{8g	1._Es
8g	war
8b	ein
=1	=1
4.dd	Jä-
8ee	-ger
8.dd	wohl-
16ee	-ge-
=2	=2
(4dd	-mut,
8b)}	.
{8b	ʒwei
8a	Fe-
8dd	-dern
=3	=3
4cc	trug
8cc	er
8dd	auf
8.a	ſei-
16cc	-nem
=4	=4
(4cc	Hut;
8b)}	.
{8g	die
8g	ei-
8b	-ne
=5	=5
4.b	weiß,
8dd	die
8.dd	and-
16ee	-re
=6	=6
(4dd	rot
8b)}	.
{8b	'Mich
8a	deucht's,
8dd	mich
=7	=7
4.cc	deucht's,
8dd	mein
8.a	Schatʒ
16cc	ſei
=8	=8
(4cc	tot.'
8b)}	.
==	==
!!!AGN: Ballade, Todesahnung, Tod, Selbstmord
!!!ONB: ESAC (Essen Associative Code) Database: BALLADE
!!!AMT: simple triple
!!!AIN: vox
!!!EED: Helmut Schaffrath
!!!EEV: 1.0
!!@@COMMENT:"b: Krapp' Nr. 93."
!!@@END:
!!!source: Deutsche Volkslieder mit ihren Melodien. Herausgegeben vom Deutschen Volksliedarchiv. Dritter Band Balladen. Berlin 1954.
!!!page: 88
!!!ENC: Anna Maria Matuszewska
!!!EEV: 2025/02/18
*-	*-
